X:1
T:In the Hall of the Mountain King
T:In the Hall of the Mountain King
%%score { 1 | 2 }
L:1/8
Q:1/4=138
M:4/4
K:D
V:1 bass nm="Фортепиано" snm="Ф-но"
V:2 bass 
V:1
"^Alla marcia e molto marcato"!pp! !fermata![F,F]8 | %1
"_sempe staccato e pp" .B,,,.C,,.D,,.E,, .F,,.D,, !tenuto!.F,,2 | %2
 .^E,,.C,, !tenuto!.E,,2 .=E,,.=C,, !tenuto!.E,,2 | .B,,,.^C,,.D,,.E,, .F,,.D,,.F,,.B,, | %4
 .A,,.F,,.D,,.F,, !tenuto!.A,,4 |[Q:1/4=80] .B,,,.C,,.D,,.E,, .F,,.D,, !tenuto!.F,,2 | %6
 .^E,,.C,, !tenuto!.E,,2 .=E,,.=C,, !tenuto!.E,,2 | .B,,,.^C,,.D,,.E,, .F,,.D,,.F,,.B,, | %8
 .A,,.F,,.D,,.F,, !tenuto!.A,,4 |[Q:1/4=85] .F,,.^G,,.^A,,.B,, .C,.A,, !tenuto!.C,2 | %10
"_cresc. poco a poco""_cresc." .D,.^A,, !tenuto!.D,2 .C,.A,, !tenuto!.C,2 | %11
 .F,,.^G,,.^A,,.B,, .C,.A,, !tenuto!.C,2 | .D,.^A,, !tenuto!.D,2 !tenuto!.C,4 | %13
[Q:1/4=90] .F,,.^G,,.^A,,.B,, .C,.A,, !tenuto!.C,2 | .D,.^A,, !tenuto!.D,2 .C,.A,, !tenuto!.C,2 | %15
[Q:1/4=95] .F,,.^G,,.^A,,.B,, .C,.A,, !tenuto!.C,2 | .D,.^A,, !tenuto!.D,2 !tenuto!.C,4 | %17
!p![Q:1/4=110]"_cresc." .[B,,,B,,]"_e sempre cresc.".C,,.[D,,D,].E,, .[F,,F,].D,, .[F,,F,]2 | %18
 .[^E,,^E,].C,, .[E,,E,]2 .[=E,,=E,].=C,, .[E,,E,]2 | %19
[Q:1/4=115] .[B,,,B,,].^C,,.[D,,D,].E,, .[F,,F,].D,,.[F,,F,].B,, | %20
 .[A,,A,].F,,.[D,,D,].F,, .[A,,A,]4 | %21
[Q:1/4=120] .[B,,,B,,].C,,.[D,,D,].E,, .[F,,F,].D,, .[F,,F,]2 | %22
 .[^E,,^E,].C,, .[E,,E,]2 .[=E,,=E,].=C,, .[E,,E,]2 | %23
 .[B,,,B,,].^C,,!>(!.[D,,D,].E,, .[F,,F,].D,,.[F,,F,].[B,,B,] | %24
 .[F,,F,].D,,.[F,,F,].B,, .[B,,,B,,]4!>)! | %25
[K:treble][Q:1/4=130]!mf! .[D,B,]"_cresc.".[F,C].[B,D].[CE] .[DF].[B,D] .[DF]2 | %26
 .[C^E].[^G,C] .[CE]2 .[=C=E].[=G,C] .[CE]2 | .[D,B,].[F,C].[B,D].[CE] .[DF].[B,D].[DF].[FB] | %28
 .[FA].[DF].[A,D].[DF] .[FA]4 |[Q:1/4=135] .[D,B,].[F,C].[B,D].[CE] .[DF].[B,D] .[DF]2 | %30
 .[C^E].[^G,C] .[CE]2 .[=C=E].[=G,C] .[CE]2 | .[D,B,].[F,C].[B,D].[CE] .[DF].[B,D].[DF].[FB] | %32
 .[FA].[DF].[A,D].[DF] .[FA]4 |[Q:1/4=140]!f! .[^A,F].[C^G].[F^A].[GB] .[FAc].[CFA] .[FAc]2 | %34
 .[F^Ad].[DFA] .[FAd]2 .[FAc].[CFA] .[FAc]2 | .[^A,F].[C^G].[F^A].[GB] .[FAc].[CFA] .[FAc]2 | %36
 .[F^Ad].[DFA] .[FAd]2 .[FAc]4 |[Q:1/4=145] .[^Af].[c^g].[f^a].[gb] .[fac'].[cfa] .[fac']2 | %38
 .[f^ad'].[dfa] .[fad']2 .[fac'].[cfa] .[fac']2 | .[^Af].[c^g].[f^a].[gb] .[fac'].[cfa] .[fac']2 | %40
 .[f^ad'].[dfa] .[fad']2 .[fac']4 |[K:bass][Q:1/4=155] .[B,,B,].C,.[D,D].E, .[F,F].D, .[F,F]2 | %42
 .[^E,^E].C, .[E,E]2 .[=E,=E].=C, .[E,E]2 | .[B,,B,].^C,.[D,D].E, .[F,F].D,.[F,F].B, | %44
 .[A,A].F,.[D,D].F, .[A,A]4 |[K:treble][Q:1/4=160]"_cresc." .[B,B].C.[Dd].E .[Ff].D .[Ff]2 | %46
 .[^E^e].C .[Ee]2 .[=E=e].=C .[Ee]2 |[Q:1/4=165] .[B,B].C!>(!.[Dd].E .[Ff].D.[Ff].[Bb] | %48
 .[Ff].D.[Ff].B .[B,B]4!>)! |!ff![Q:1/4=170] .[db].[fc'].[bd'].[c'e'] .[d'f'].[bd'] .[d'f']2 | %50
 .[c'^e'].[^gc'] .[c'e']2 .[=c'=e'].[=gc'] .[c'e']2 | %51
 .[db].[fc'].[bd'].[c'e'] .[d'f'].[bd'].[d'f'].[f'b'] | .[f'a'].[d'f'].[ad'].[d'f'] .[ad'f'a']4 | %53
!ff![Q:1/4=175] .[db].[fc'].[bd'].[c'e'] .[d'f'].[bd'] .[d'f']2 | %54
 .[c'^e'].[^gc'] .[c'e']2 .[=c'=e'].[=gc'] .[c'e']2 | %55
 .[db].[fc'].[bd'].[c'e'] .[d'f'].[bd'].[d'f'].[f'b'] | .[f'a'].[d'f'].[ad'].[d'f'] .[ad'f'a']4 | %57
[Q:1/4=180]!8va(!"_cresc." .[^af'].[c'^g'].[f'^a'].[g'b'] .[f'a'c''].[c'f'a'] .[f'a'c'']2 | %58
 .[f'^a'd''].[d'f'a'] .[f'a'd'']2 .[f'a'c''].[c'f'a'] .[f'a'c'']2 | %59
 .[^af'].[c'^g'].[f'^a'].[g'b'] .[f'a'c''].[c'f'a'] .[f'a'c'']2 | %60
 .[f'^a'd''].[d'f'a'] .[f'a'd'']2 .[c'f'a'c'']4!8va)! | %61
[Q:1/4=185]!8va(! .[^af'].[c'^g'].[f'^a'].[g'b'] .[f'a'c''].[c'f'a'] .[f'a'c'']2 | %62
 .[f'^a'^d''].[d'f'a'] .[f'a'd'']2 .[f'a'c''].[c'f'a'] .[f'a'c'']2 | %63
 .[^af'].[c'^g'].[f'^a'].[g'b'] .[f'a'c''].[c'f'a'] .[f'a'c'']2 | %64
 .[f'^a'^d''].[d'f'a'] .[f'a'd'']2 .[c'f'a'c'']4!8va)! | %65
!fff![Q:1/4=190]!8va(! .[bb'].[c'c''].[d'd''].[e'e''] .[f'f''].[d'd''] .[f'f'']2 | %66
 .[^e'^e''].[c'c''] .[e'e'']2 .[=e'=e''].[=c'=c''] .[e'e'']2 | %67
 .[bb'].[^c'^c''].[d'd''].[e'e''] .[f'f''].d''.[f'f''].b' | %68
 .[a'a''].f''.d''.f'' .[a'd''a'']4!8va)! | %69
[Q:1/4=195]!8va(! .[bb'].[c'c''].[d'd''].[e'e''] .[f'f''].[d'd''] .[f'f'']2 | %70
 .[^e'^e''].[c'c''] .[e'e'']2 .[=e'=e''].[=c'=c''] .[e'e'']2 | %71
 .[bb'].[^c'^c''].[d'd''].[e'e''] .[f'f''].d''.[f'f''].b' | f''d''f''b' [bb']4!8va)! | %73
[Q:1/4=200] z2{^ga^a} [Bb]2 z4 | z2{^ga^a} [Bb]2 z4 | %75
 .[Bb].[cc'].[dd'].[!courtesy!=e!courtesy!=e'] .[ff'].[dd'].[ff'].[bb'] | %76
 .[^a^a'].f'.[aa'].c' .[bb']4 | z2!8va(!{^g'a'^a'} [bb']2!8va)! z4 | %78
 z2!8va(!{^g'a'^a'} [bb']2!8va)! z4 | %79
!8va(! .[bb'].[c'c''].[d'd''].[!courtesy!=e'!courtesy!=e''] .[f'f''].[d'd''].[f'f''].[b'b''] | %80
 .[^a'^a''].f''.[a'a''].c'' .[b'b'']4!8va)! | z2{^ga^a} [Bb]2 z4 | %82
 z2!8va(!{^g'a'^a'} [bb']2!8va)! z4 | z2{^GA^A} [DB]2{^ga^a} [db]2!8va(!{^g'a'^a'} [d'b']2 | %84
{^g''a''^a''} [d''b'']2{^g'a'^a'} [d'b']2!8va)!{^ga^a} [db]2{^GA^A} [DB]2 | z8 | %86
"^m.g." !~)![^gb]2[K:bass]!fff! [D,,F,,B,,]2 z4 |] %87
V:2
 !fermata!z8 | .B,,,2 .F,,2 .B,,,2 .F,,2 | .B,,,2 .F,,2 .B,,,2 .F,,2 | .B,,,2 .F,,2 .B,,,2 .F,,2 | %4
 .D,,2 .A,,2 .D,,2 .A,,2 | .B,,,2{/^E,,} .F,,2 .B,,,2{/E,,} .F,,2 | %6
 .B,,,2{/^E,,} .F,,2 .B,,,2{/E,,} .F,,2 | .B,,,2{/^E,,} .F,,2 .B,,,2{/E,,} .F,,2 | %8
 .D,,2{/^G,,} .A,,2 .D,,2{/G,,} .A,,2 | .F,,2 .C,2 .F,,2 .C,2 | .D,,2 .^A,,2 .F,,2 .C,2 | %11
 .F,,2 .C,2 .F,,2 .C,2 | .D,,2 .^A,,2 .F,,2 .C,2 | .F,,2{/^B,,} .C,2 .F,,2{/B,,} .C,2 | %14
 .D,,2{/^^G,,} .^A,,2 .F,,2{/^B,,} .C,2 | .F,,2{/^B,,} .C,2 .F,,2{/B,,} .C,2 | %16
 .D,,2{/^^G,,} .^A,,2 .F,,2{/^B,,} .C,2 | .B,,,2 .F,,2 .B,,,2 .F,,2 | .B,,,2 .F,,2 .B,,,2 .F,,2 | %19
 .B,,,2 .F,,2 .B,,,2 .F,,2 | .D,,2 .A,,2 .D,,2 .A,,2 | .B,,,2 .F,,2 .B,,,2 .F,,2 | %22
 .B,,,2 .F,,2 .B,,,2 .F,,2 | .B,,,2 .B,,2 .A,,2 .G,,2 | .F,,2 .E,,2 .D,,2 .C,,2 | %25
 .B,,,2 (.[F,,D,]/.^E,,/.[F,,D,]) .B,,,2 (.[F,,D,]/.E,,/.[F,,D,]) | %26
 .B,,,2 (.[F,,C,]/.^E,,/.[F,,C,]) .B,,,2 (.[F,,=C,]/.E,,/.[F,,C,]) | %27
 .B,,,2 (.[F,,D,]/.^E,,/.[F,,D,]) .B,,,2 (.[F,,D,]/.E,,/.[F,,D,]) | %28
 .D,,2 (.[A,,F,]/.^G,,/.[A,,F,]) .D,,2 (.[A,,F,]/.G,,/.[A,,F,]) | %29
 .B,,,2 (.[F,,D,]/.^E,,/.[F,,D,]) .B,,,2 (.[F,,D,]/.E,,/.[F,,D,]) | %30
 .B,,,2 (.[F,,C,]/.^E,,/.[F,,C,]) .B,,,2 (.[F,,=C,]/.E,,/.[F,,C,]) | %31
 .B,,,2 (.[F,,D,]/.^E,,/.[F,,D,]) .B,,,2 (.[F,,D,]/.E,,/.[F,,D,]) | %32
 .D,,2 (.[A,,F,]/.^G,,/.[A,,F,]) .D,,2 (.[A,,F,]/.G,,/.[A,,F,]) | %33
 .F,,2 (.[C,^A,]/.^B,,/.[C,A,]) .F,,2 (.[C,A,]/.B,,/.[C,A,]) | %34
 .D,,2 (.[D,^A,]/.C,/.[D,A,]) .F,,2 (.[C,A,]/.^B,,/.[C,A,]) | %35
 .F,,2 (.[C,^A,]/.^B,,/.[C,A,]) .F,,2 (.[C,A,]/.B,,/.[C,A,]) | %36
 .D,,2 (.[D,^A,]/.C,/.[D,A,]) .F,,2 (.[C,A,]/.^B,,/.[C,A,]) | %37
 .F,,2 (.[C,^A,]/.^B,,/.[C,A,]) .F,,2 (.[C,A,]/.B,,/.[C,A,]) | %38
 .D,,2 (.[D,^A,]/.C,/.[D,A,]) .F,,2 (.[C,A,]/.^B,,/.[C,A,]) | %39
 .F,,2 (.[C,^A,]/.^B,,/.[C,A,]) .F,,2 (.[C,A,]/.B,,/.[C,A,]) | %40
 .D,,2 (.[D,^A,]/.C,/.[D,A,]) .F,,2 (.[C,A,]/.^B,,/.[C,A,]) | %41
!<(!!ped! (6:4:6(B,,,^E,,F,,!<)!!>(!D,E,,F,,)!ped-up!!>)!!<(!!ped! (6:4:6(B,,,E,,F,,!<)!!>(!D,E,,F,,)!ped-up!!>)! | %42
"_simile"!<(!!ped! (6:4:6(B,,,^E,,F,,!<)!!>(!D,E,,F,,)!ped-up!!>)!!<(!!ped! (6:4:6(B,,,E,,F,,!<)!!>(!D,E,,F,,)!ped-up!!>)! | %43
!<(!!ped! (6:4:6(B,,,^E,,F,,!<)!!>(!D,E,,F,,)!ped-up!!>)!!<(!!ped! (6:4:6(B,,,E,,F,,!<)!!>(!D,E,,F,,)!ped-up!!>)! | %44
!<(!!ped! (6:4:6(D,,^G,,A,,!<)!!>(!F,G,,A,,)!ped-up!!>)!!<(!!ped! (6:4:6(D,,G,,A,,!<)!!>(!F,G,,A,,)!ped-up!!>)! | %45
!<(!!ped! (6:4:6(B,,,^E,,F,,!<)!!>(!D,E,,F,,)!ped-up!!>)!!<(!!ped! (6:4:6(B,,,E,,F,,!<)!!>(!D,E,,F,,)!ped-up!!>)! | %46
!<(!!ped! (6:4:6(B,,,^E,,F,,!<)!!>(!D,E,,F,,)!ped-up!!>)!!<(!!ped! (6:4:6(B,,,E,,F,,!<)!!>(!D,E,,F,,)!ped-up!!>)! | %47
!<(!!ped! (3B,,,^E,,F,,!<)!!ped-up!!<(!!ped! [B,,B,]2 [A,,A,]2 [G,,G,]2 | %48
 [F,,F,]2 [E,,E,]2 [D,,D,]2 [C,,C,]2!<)!!ped-up! | %49
!ped! .[B,,,B,,].[A,,,A,,].[G,,,G,,].[F,,,F,,]!ped-up!!ped! .[B,,,B,,].[A,,,A,,].[G,,,G,,].[F,,,F,,]!ped-up! | %50
!ped! .[B,,,B,,].[A,,,A,,].[G,,,G,,].[F,,,F,,]!ped-up!!ped! .[B,,,B,,].[A,,,A,,].[G,,,G,,].[F,,,F,,]!ped-up! | %51
!ped! .[B,,,B,,].[A,,,A,,].[G,,,G,,].[F,,,F,,]!ped-up!!ped! .[B,,,B,,].[A,,,A,,].[G,,,G,,].[F,,,F,,]!ped-up! | %52
!ped! .[D,,D,].[C,,C,].[B,,,B,,].[A,,,A,,]!ped-up!!ped! .[D,,D,].[C,,C,].[B,,,B,,].[A,,,A,,]!ped-up! | %53
!ped! .[B,,,B,,].[A,,,A,,].[G,,,G,,].[F,,,F,,]!ped-up!!ped! .[B,,,B,,].[A,,,A,,].[G,,,G,,].[F,,,F,,]!ped-up! | %54
!ped! .[B,,,B,,].[A,,,A,,].[G,,,G,,].[F,,,F,,]!ped-up!!ped! .[B,,,B,,].[A,,,A,,].[G,,,G,,].[F,,,F,,]!ped-up! | %55
!ped! .[B,,,B,,].[A,,,A,,].[G,,,G,,].[F,,,F,,]!ped-up!!ped! .[B,,,B,,].[A,,,A,,].[G,,,G,,].[F,,,F,,]!ped-up! | %56
!ped! .[D,,D,].[C,,C,].[B,,,B,,].[A,,,A,,]!ped-up!!ped! .[D,,D,].[C,,C,].[B,,,B,,].[A,,,A,,]!ped-up! | %57
!ped! .[F,,F,].[E,,E,].[D,,D,].[C,,C,]!ped-up!!ped! .[F,,F,].[E,,E,].[D,,D,].[C,,C,]!ped-up! | %58
!ped! .[D,,D,].[C,,C,].[D,,D,].[E,,E,]!ped-up!!ped! .[F,,F,].[E,,E,].[D,,D,].[C,,C,]!ped-up! | %59
!ped! .[F,,F,].[E,,E,].[D,,D,].[C,,C,]!ped-up!!ped! .[F,,F,].[E,,E,].[D,,D,].[C,,C,]!ped-up! | %60
!ped! .[D,,D,].[C,,C,].[D,,D,].[E,,E,]!ped-up!!ped! .[F,,F,].[E,,E,].[D,,D,].[C,,C,]!ped-up! | %61
!ped! .[F,,F,].[^E,,^E,].[^D,,^D,].[C,,C,]!ped-up!!ped! .[F,,F,].[E,,E,].[D,,D,].[C,,C,]!ped-up! | %62
!ped! .[^D,,^D,].[C,,C,].[D,,D,].[^E,,^E,]!ped-up!!ped! .[F,,F,].[E,,E,].[D,,D,].[C,,C,]!ped-up! | %63
!ped! .[F,,F,].[^E,,^E,].[^D,,^D,].[C,,C,]!ped-up!!ped! .[F,,F,].[E,,E,].[D,,D,].[C,,C,]!ped-up! | %64
!ped! .[^D,,^D,].[C,,C,].[D,,D,].[^E,,^E,]!ped-up!!ped! .[F,,F,].[E,,E,].[D,,D,].[C,,C,]!ped-up! | %65
!ped! .[B,,,B,,].[A,,,A,,].[G,,,G,,].[F,,,F,,]!ped-up!!ped! .[B,,,B,,].[A,,,A,,].[G,,,G,,].[F,,,F,,]!ped-up! | %66
!ped! .[B,,,B,,].[A,,,A,,].[G,,,G,,].[F,,,F,,]!ped-up!!ped! .[B,,,B,,].[A,,,A,,].[G,,,G,,].[F,,,F,,]!ped-up! | %67
!ped! .[B,,,B,,].[A,,,A,,].[G,,,G,,].[F,,,F,,]!ped-up!!ped! .[B,,,B,,].[A,,,A,,].[G,,,G,,].[F,,,F,,]!ped-up! | %68
!ped! .[D,,D,].[C,,C,].[B,,,B,,].[A,,,A,,]!ped-up!!ped! .[D,,D,].[C,,C,].[B,,,B,,].[A,,,A,,]!ped-up! | %69
!ped! .[B,,,B,,].[A,,,A,,].[G,,,G,,].[F,,,F,,]!ped-up!!ped! .[B,,,B,,].[A,,,A,,].[G,,,G,,].[F,,,F,,]!ped-up! | %70
!ped! .[B,,,B,,].[A,,,A,,].[G,,,G,,].[F,,,F,,]!ped-up!!ped! .[B,,,B,,].[A,,,A,,].[G,,,G,,].[F,,,F,,]!ped-up! | %71
!ped! .[B,,,B,,].[A,,,A,,].[G,,,G,,].[F,,,F,,]!ped-up!!ped! .[B,,,B,,].[A,,,A,,].[G,,,G,,].[F,,,F,,]!ped-up! | %72
!ped! .[B,,,B,,].[A,,,A,,].[G,,,G,,].[F,,,F,,]!ped-up!!ped! .[F,,,F,,].[E,,,E,,].[D,,,D,,].[C,,,C,,]!ped-up! | %73
!ped! [B,,,,B,,,]2 [D,^E,^G,B,]2!ped-up! z4 |!ped! [B,,,,B,,,]2 [D,F,B,]2!ped-up! z4 | %75
!ped! .[G,,G,]2 .[G,B,^E]2!ped-up!!ped! .[F,,F,]2 .[F,B,D]2!ped-up! | %76
!ped! .[F,,F,]2 .[F,CE]2!ped-up!!ped! .[B,,,B,,]2 .[F,B,D]2!ped-up! | %77
!ped! [B,,,,B,,,]2 [D,^E,^G,B,]2!ped-up! z4 |!ped! [B,,,,B,,,]2 [D,F,B,]2!ped-up! z4 | %79
!ped! .[G,,G,]2 .[G,B,^E]2!ped-up!!ped! .[F,,F,]2 .[F,B,D]2!ped-up! | %80
!ped! .[F,,F,]2 .[F,CE]2!ped-up!!ped! .[B,,,B,,]2 .[F,B,D]2!ped-up! | %81
!ped! [B,,,,B,,,]2 [D,^E,^G,B,]2!ped-up! z4 |!ped! [B,,,,B,,,]2 [D,^E,^G,B,]2!ped-up! z4 | %83
 z2!ped! [D,^E,^G,B,]2[K:treble] [D^E^GB]2 [d^e^gb]2 | %84
!8va(! [d'^e'^g'b']2!8va)! [d^e^gb]2 [D^E^GB]2[K:bass] [D,^E,^G,B,]2!ped-up! | %85
 z2"^cresc."!ped! !~(!B,,6!ped-up! | z2 [B,,,,B,,,]2 z4 |] %87

